build/img/icons/delivery2.svg

<svg width="139" height="140" viewBox="0 0 139 140" fill="none" xmlns="http://www.w3.org/2000/svg">
<path d="M17.375 70H69.5V78.6875H17.375V70Z" fill="#F3F3F3"/>
<path d="M8.6875 48.2812H52.125V56.9688H8.6875V48.2812Z" fill="#F3F3F3"/>
<path d="M129.961 72.6323L116.929 42.2261C116.595 41.4445 116.038 40.7784 115.329 40.3105C114.619 39.8425 113.788 39.5933 112.938 39.5938H99.9063V30.9062C99.9063 29.7542 99.4487 28.6494 98.6341 27.8348C97.8195 27.0201 96.7146 26.5625 95.5626 26.5625H26.0626V35.25H91.2188V89.7901C89.2395 90.9395 87.5073 92.4693 86.1221 94.2913C84.737 96.1134 83.7262 98.1916 83.1482 100.406H55.852C54.7948 96.3116 52.2805 92.743 48.7804 90.3696C45.2803 87.9961 41.0347 86.9806 36.8394 87.5135C32.6442 88.0464 28.7873 90.091 25.9917 93.2641C23.1961 96.4373 21.6537 100.521 21.6537 104.75C21.6537 108.979 23.1961 113.063 25.9917 116.236C28.7873 119.409 32.6442 121.454 36.8394 121.987C41.0347 122.519 45.2803 121.504 48.7804 119.13C52.2805 116.757 54.7948 113.188 55.852 109.094H83.1482C84.0931 112.822 86.2541 116.128 89.2892 118.49C92.3244 120.852 96.0605 122.134 99.9063 122.134C103.752 122.134 107.488 120.852 110.523 118.49C113.559 116.128 115.72 112.822 116.665 109.094H125.969C127.121 109.094 128.226 108.636 129.04 107.821C129.855 107.007 130.313 105.902 130.313 104.75V74.3438C130.313 73.7553 130.193 73.173 129.961 72.6323ZM39.0938 113.438C37.3756 113.438 35.696 112.928 34.2673 111.973C32.8387 111.019 31.7252 109.662 31.0676 108.075C30.4101 106.487 30.238 104.74 30.5733 103.055C30.9085 101.37 31.7359 99.822 32.9508 98.607C34.1658 97.392 35.7138 96.5646 37.399 96.2294C39.0842 95.8942 40.831 96.0663 42.4184 96.7238C44.0058 97.3813 45.3626 98.4948 46.3172 99.9235C47.2718 101.352 47.7813 103.032 47.7813 104.75C47.779 107.053 46.863 109.262 45.2343 110.89C43.6056 112.519 41.3972 113.435 39.0938 113.438ZM99.9063 48.2812H110.071L119.384 70H99.9063V48.2812ZM99.9063 113.438C98.1881 113.438 96.5085 112.928 95.0798 111.973C93.6512 111.019 92.5377 109.662 91.8801 108.075C91.2226 106.487 91.0506 104.74 91.3858 103.055C91.721 101.37 92.5484 99.822 93.7633 98.607C94.9783 97.392 96.5263 96.5646 98.2115 96.2294C99.8967 95.8942 101.643 96.0663 103.231 96.7238C104.818 97.3813 106.175 98.4948 107.13 99.9235C108.084 101.352 108.594 103.032 108.594 104.75C108.592 107.053 107.676 109.262 106.047 110.89C104.418 112.519 102.21 113.435 99.9063 113.438ZM121.625 100.406H116.665C115.708 96.6855 113.543 93.3875 110.51 91.0292C107.478 88.6709 103.748 87.3857 99.9063 87.375V78.6875H121.625V100.406Z" fill="#F3F3F3"/>
</svg>

<svg width="139" height="140" fill="none" xmlns="http://www.w3.org/2000/svg">
    <path d="M17.375 70H69.5v8.688H17.375V70zM8.688 48.281h43.437v8.688H8.687V48.28z" fill="#F3F3F3"/>
    <path d="m129.961 72.632-13.032-30.406a4.339 4.339 0 0 0-3.991-2.632H99.906v-8.688a4.344 4.344 0 0 0-4.343-4.343h-69.5v8.687h65.156v54.54a17.343 17.343 0 0 0-8.07 10.616H55.851a17.375 17.375 0 1 0 0 8.688h27.296a17.288 17.288 0 0 0 33.517 0h9.304a4.34 4.34 0 0 0 3.071-1.273 4.34 4.34 0 0 0 1.273-3.071V74.344c0-.589-.12-1.171-.352-1.712zm-90.867 40.806a8.685 8.685 0 0 1-8.026-5.363 8.69 8.69 0 0 1 6.331-11.846 8.688 8.688 0 0 1 10.382 8.521 8.695 8.695 0 0 1-8.687 8.688zm60.812-65.157h10.165L119.384 70H99.906V48.281zm0 65.157a8.685 8.685 0 0 1-8.026-5.363 8.69 8.69 0 0 1 6.332-11.846 8.689 8.689 0 0 1 10.382 8.521 8.7 8.7 0 0 1-8.688 8.688zm21.719-13.032h-4.96a17.355 17.355 0 0 0-16.759-13.031v-8.688h21.719v21.719z" fill="#F3F3F3"/>
</svg>
